src/lib/packages/icons/src/assets/filled/taco.svg

<svg width="24" height="24" viewBox="0 0 24 24" fill="none" xmlns="http://www.w3.org/2000/svg">
<path d="M21 12.04C20.98 12.29 20.73 12.61 20.41 12.96C18.9 9.39 15.99 7.42002 12 7.42002C8.00997 7.42002 5.09997 9.39 3.58997 12.96C3.26997 12.61 3.01997 12.29 2.99997 12.04C2.94997 11.15 3.88998 10.36 4.13998 9.51999C4.38998 8.66999 4.09997 7.43999 4.68997 6.82999C5.28997 6.17999 6.49996 6.29 7.23996 5.84C7.96996 5.41 8.43997 4.27 9.30997 4.03C10.11 3.83 11.08 4.57999 12 4.57999C12.92 4.57999 13.89 3.83 14.69 4.03C15.56 4.27 16.03 5.4 16.76 5.84C17.5 6.29 18.71 6.17999 19.31 6.82999C19.9 7.43999 19.61 8.66999 19.86 9.51999C20.11 10.36 21.05 11.15 21 12.04ZM20.56 18.41C20.6 19.27 19.92 20 19.06 20H19C16.42 19.9 14.21 19.86 12 19.86C9.78997 19.86 7.57997 19.9 4.99997 20H4.93997C4.07997 20 3.39997 19.27 3.43997 18.41C3.51997 16.91 3.78995 15.28 4.35995 13.79C5.45995 10.85 7.70997 8.42002 12 8.42002C16.29 8.42002 18.54 10.85 19.64 13.79C20.21 15.28 20.48 16.91 20.56 18.41ZM8.01996 16C8.01996 15.45 7.56996 15 7.01996 15C6.46996 15 6.01996 15.45 6.01996 16C6.01996 16.55 6.46996 17 7.01996 17C7.56996 17 8.01996 16.55 8.01996 16ZM10.02 13C10.02 12.45 9.56996 12 9.01996 12C8.46996 12 8.01996 12.45 8.01996 13C8.01996 13.55 8.46996 14 9.01996 14C9.56996 14 10.02 13.55 10.02 13ZM12.02 16C12.02 15.45 11.57 15 11.02 15C10.47 15 10.02 15.45 10.02 16C10.02 16.55 10.47 17 11.02 17C11.57 17 12.02 16.55 12.02 16Z" fill="currentColor"/>
</svg>

<svg xmlns="http://www.w3.org/2000/svg" width="24" height="24" fill="none"><path fill="currentColor" d="M21 12.04c-.02.25-.27.57-.59.92C18.9 9.39 15.99 7.42 12 7.42s-6.9 1.97-8.41 5.54c-.32-.35-.57-.67-.59-.92-.05-.89.89-1.68 1.14-2.52.25-.85-.04-2.08.55-2.69.6-.65 1.81-.54 2.55-.99.73-.43 1.2-1.57 2.07-1.81.8-.2 1.77.55 2.69.55.92 0 1.89-.75 2.69-.55.87.24 1.34 1.37 2.07 1.81.74.45 1.95.34 2.55.99.59.61.3 1.84.55 2.69.25.84 1.19 1.63 1.14 2.52Zm-.44 6.37c.04.86-.64 1.59-1.5 1.59H19a176.229 176.229 0 0 0-14 0h-.06c-.86 0-1.54-.73-1.5-1.59.08-1.5.35-3.13.92-4.62 1.1-2.94 3.35-5.37 7.64-5.37 4.29 0 6.54 2.43 7.64 5.37.57 1.49.84 3.12.92 4.62ZM8.02 16c0-.55-.45-1-1-1s-1 .45-1 1 .45 1 1 1 1-.45 1-1Zm2-3c0-.55-.45-1-1-1s-1 .45-1 1 .45 1 1 1 1-.45 1-1Zm2 3c0-.55-.45-1-1-1s-1 .45-1 1 .45 1 1 1 1-.45 1-1Z"/></svg>
